X: 4688
T:Smash the Windows
C:Trad
S:photocopy
I:speed 350
M:6/8
I:part 1
K:D
|:DED F2A | d2f ecA |  G2B F2A | E2FGFE|
DED F2A | d2f ecA | Bgf edc |[1 d3 d3 :|[2d3 d2|
|:f | a2 f d2 e | f2 g agf | g2e cde | e2 f gfe |
|[1a2f d2 e | f2 g agf  | g2 e cde | d3 d2 :|
|[2 fed gfe | agf bag | fed cde | d3 d3||
I:final
|:A,2 A, D2 F | F2 A G2 F | E2 G D2 F | C2 D ECA, |
A,2 A, D2 F | F2B G2 F | GBA G2 G |[1F3 F3:|[2F3 F2|
|:A | f2 d A2 A | d2 e fed | e2c A2 A | c2 d edc |
[1 f2 d A2 A | d2 e fed | e2 c A2 G | F3 F2 :|
[2 dcd edc | fed gfe | dcB A2 G | F3 F3||
